X:6
T:Noite de Veran
T:Squeeze-In Processional
C:Milladoiro
Z:Robin Beech robin.beech@mcgill.ca
R:march
L:1/8
M:4/4
K:Gmaj
| D2B2 B2A2 | G2 FG A2 A2 | D2c2 c2B2 | A2B cd4 |D2B2 B2 A2 | G2FG A2A2 |
D2 A2A2G2 | F2EFG4 :: D2d2d2d2 | edcBd2c2  | ABc2c2Bc |
d2c2B2A2 | D2d2d2d2 | edcBd2c2 | ABc2c2B2 | A2BAG4 :|
